X:0950
T:Callum Fidhdair,
C:an Old Reel.
M:C
L:1/8
Q:1/2=102
I: :: :: :: :|
N:initial rest added
Z:Jack Campin * www.campin.me.uk * 2009
K:A Dorian
 z|GBBg     dBBb       |gBBg     dBBg    |B2 Bg    dBBb      |gAAB     A2A:|
^d|efgd     eeea       |ge e/e/e fddf    |efgd     e/e/e a2  |gB A/A/A A2A:|
^d|Be e/e/e dB    B/B/B|gB B/B/B dB B/B/B|Be e/e/e dB   B/B/B|gB A/A/A A2A:|
^d|efgd     e/e/e a2   |g>ba>g   fddf    |e>fgd    eeea      |gB A/A/A A2A:|

